src/front_assets/svg/testimonial.svg

<svg width="40" height="40" viewBox="0 0 40 40" fill="none" xmlns="http://www.w3.org/2000/svg">
<path d="M13.483 19.3831H5.66634C5.79967 11.5998 7.33301 10.3165 12.1163 7.48312C12.6663 7.14979 12.8497 6.44979 12.5163 5.88312C12.1997 5.33312 11.483 5.14979 10.933 5.48312C5.29967 8.81646 3.33301 10.8498 3.33301 20.5331V29.5165C3.33301 32.3665 5.64967 34.6665 8.48301 34.6665H13.483C16.4163 34.6665 18.633 32.4498 18.633 29.5165V24.5165C18.633 21.5998 16.4163 19.3831 13.483 19.3831Z" fill="url(#paint0_linear_13_494)"/>
<path d="M31.5163 19.3831H23.6996C23.8329 11.5998 25.3663 10.3165 30.1496 7.48312C30.6996 7.14979 30.8829 6.44979 30.5496 5.88312C30.2163 5.33312 29.5163 5.14979 28.9496 5.48312C23.3163 8.81646 21.3496 10.8498 21.3496 20.5498V29.5331C21.3496 32.3831 23.6663 34.6831 26.4996 34.6831H31.4996C34.4329 34.6831 36.6496 32.4665 36.6496 29.5331V24.5331C36.6663 21.5998 34.4496 19.3831 31.5163 19.3831Z" fill="url(#paint1_linear_13_494)"/>
<defs>
<linearGradient id="paint0_linear_13_494" x1="20.9558" y1="218.376" x2="-18.5335" y2="216.745" gradientUnits="userSpaceOnUse">
<stop offset="0.25249" stop-color="#40B4A6"/>
<stop offset="0.637527" stop-color="#A6D8D2"/>
</linearGradient>
<linearGradient id="paint1_linear_13_494" x1="38.9725" y1="218.497" x2="-0.517108" y2="216.867" gradientUnits="userSpaceOnUse">
<stop offset="0.25249" stop-color="#40B4A6"/>
<stop offset="0.637527" stop-color="#A6D8D2"/>
</linearGradient>
</defs>
</svg>

<svg xmlns="http://www.w3.org/2000/svg" width="40" height="40" fill="none"><path fill="url(#a)" d="M13.483 19.383H5.666c.134-7.783 1.667-9.066 6.45-11.9.55-.333.734-1.033.4-1.6a1.144 1.144 0 0 0-1.583-.4c-5.633 3.333-7.6 5.367-7.6 15.05v8.984c0 2.85 2.317 5.15 5.15 5.15h5c2.933 0 5.15-2.217 5.15-5.15v-5c0-2.917-2.217-5.134-5.15-5.134"/><path fill="url(#b)" d="M31.516 19.383H23.7c.133-7.783 1.666-9.066 6.45-11.9.55-.333.733-1.033.4-1.6a1.164 1.164 0 0 0-1.6-.4c-5.634 3.333-7.6 5.367-7.6 15.067v8.983c0 2.85 2.316 5.15 5.15 5.15h5c2.933 0 5.15-2.216 5.15-5.15v-5c.016-2.933-2.2-5.15-5.134-5.15"/><defs><linearGradient id="a" x1="20.956" x2="-18.534" y1="218.376" y2="216.745" gradientUnits="userSpaceOnUse"><stop offset=".252" stop-color="#40B4A6"/><stop offset=".638" stop-color="#A6D8D2"/></linearGradient><linearGradient id="b" x1="38.972" x2="-.517" y1="218.497" y2="216.867" gradientUnits="userSpaceOnUse"><stop offset=".252" stop-color="#40B4A6"/><stop offset=".638" stop-color="#A6D8D2"/></linearGradient></defs></svg>
